public/img/ui/route.svg

<svg fill="none" height="40" viewBox="0 0 40 40" width="40" xmlns="http://www.w3.org/2000/svg" xmlns:xlink="http://www.w3.org/1999/xlink"><clipPath id="a"><path d="m0 0h40v40h-40z"/></clipPath><g clip-path="url(#a)" stroke="#ff2d20" stroke-linecap="round" stroke-linejoin="round" stroke-width="2"><path d="m7.89 1c3.8 0 6.89 3.08 6.89 6.89 0 6.75-6.89 11.25-6.89 11.25s-6.89-4.5-6.89-11.25c0-3.81 3.08-6.89 6.89-6.89z"/><path d="m7.89004 10.9891c1.71208 0 3.09996-1.38795 3.09996-3.10004 0-1.71208-1.38788-3.1-3.09996-3.1s-3.1 1.38792-3.1 3.1c0 1.71209 1.38792 3.10004 3.1 3.10004z"/><path d="m32.11 20.8711c3.8 0 6.89 3.08 6.89 6.89 0 6.75-6.89 11.25-6.89 11.25s-6.89-4.5-6.89-11.25c0-3.8 3.08-6.89 6.89-6.89z"/><path d="m32.11 30.8484c1.7121 0 3.1-1.3879 3.1-3.1 0-1.712-1.3879-3.1-3.1-3.1s-3.1 1.388-3.1 3.1c0 1.7121 1.3879 3.1 3.1 3.1z"/><path d="m21.1099 29.9308h-4.26c-2.74 0-4.97-2.22-4.97-4.97 0-2.74 2.22-4.97 4.97-4.97h6.29c2.74 0 4.97-2.22 4.97-4.97 0-2.74-2.22-4.97-4.97-4.97h-4.26"/></g></svg>

<svg width="40" height="40" viewBox="0 0 40 40" fill="none" xmlns="http://www.w3.org/2000/svg">
<g clip-path="url(#clip0_834_1100)">
<path d="M7.89 1C11.69 1 14.78 4.08 14.78 7.89C14.78 14.64 7.89 19.14 7.89 19.14C7.89 19.14 1 14.64 1 7.89C1 4.08 4.08 1 7.89 1Z" stroke="#FF2D20" stroke-width="2" stroke-linecap="round" stroke-linejoin="round"/>
<path d="M7.89004 10.9891C9.60212 10.9891 10.99 9.60115 10.99 7.88906C10.99 6.17698 9.60212 4.78906 7.89004 4.78906C6.17796 4.78906 4.79004 6.17698 4.79004 7.88906C4.79004 9.60115 6.17796 10.9891 7.89004 10.9891Z" stroke="#FF2D20" stroke-width="2" stroke-linecap="round" stroke-linejoin="round"/>
<path d="M32.11 20.8711C35.91 20.8711 39 23.9511 39 27.7611C39 34.5111 32.11 39.0111 32.11 39.0111C32.11 39.0111 25.22 34.5111 25.22 27.7611C25.22 23.9611 28.3 20.8711 32.11 20.8711Z" stroke="#FF2D20" stroke-width="2" stroke-linecap="round" stroke-linejoin="round"/>
<path d="M32.11 30.8484C33.8221 30.8484 35.21 29.4605 35.21 27.7484C35.21 26.0364 33.8221 24.6484 32.11 24.6484C30.3979 24.6484 29.01 26.0364 29.01 27.7484C29.01 29.4605 30.3979 30.8484 32.11 30.8484Z" stroke="#FF2D20" stroke-width="2" stroke-linecap="round" stroke-linejoin="round"/>
<path d="M21.1099 29.9308H16.8499C14.1099 29.9308 11.8799 27.7108 11.8799 24.9608C11.8799 22.2208 14.0999 19.9908 16.8499 19.9908H23.1399C25.8799 19.9908 28.1099 17.7708 28.1099 15.0208C28.1099 12.2808 25.8899 10.0508 23.1399 10.0508H18.8799" stroke="#FF2D20" stroke-width="2" stroke-linecap="round" stroke-linejoin="round"/>
</g>
<defs>
<clipPath id="clip0_834_1100">
<rect width="40" height="40" fill="white"/>
</clipPath>
</defs>
</svg>
